U-commodities/img/icons/rocet.svg

<svg width="50" height="50" viewBox="0 0 50 50" fill="none" xmlns="http://www.w3.org/2000/svg">
<path d="M29.1739 43.3025L28.6998 42.5116L33.5801 39.8036L30.3055 34.3457C30.2117 34.1908 30.2223 33.9978 30.3305 33.8505L35.0458 27.5306C37.6655 24.0215 39.0493 19.8865 39.0493 15.5699V7.56528C39.0493 7.15013 38.8261 6.77814 38.4525 6.5712C38.0775 6.36426 37.6351 6.36553 37.2614 6.5712L30.048 10.5754C26.1593 12.7337 23.1263 15.9534 21.2751 19.8878L17.941 26.9745C17.8631 27.1383 17.6941 27.2437 17.5079 27.2437H10.9507V32.6775H10V26.7854C10 26.5327 10.2126 26.3283 10.4754 26.3283H17.2003L20.4076 19.5107C22.3407 15.4011 25.511 12.0367 29.5726 9.78323L36.7861 5.77899C37.4542 5.407 38.2557 5.407 38.9265 5.77899C39.5999 6.15097 40 6.81877 40 7.56528V15.5712C40 20.0795 38.5528 24.3998 35.8169 28.0651L31.2799 34.1451L34.6404 39.7426C34.7038 39.8467 34.7209 39.9724 34.6879 40.088C34.6562 40.206 34.5757 40.3051 34.4661 40.366L29.1739 43.3025ZM29.9503 24.7756C29.2188 24.7756 28.4978 24.5915 27.8482 24.2297C25.8345 23.1125 25.1426 20.6279 26.3046 18.6906C27.4679 16.7545 30.0559 16.0917 32.0656 17.2064C33.0414 17.7485 33.7399 18.6233 34.0304 19.6681C34.3222 20.7143 34.1717 21.8074 33.6092 22.7456C33.0467 23.6838 32.1369 24.3541 31.0502 24.6347C30.6857 24.7299 30.316 24.7756 29.9503 24.7756ZM29.9635 17.5797C28.8345 17.5797 27.7333 18.1434 27.1285 19.1489C26.228 20.6482 26.7654 22.5729 28.3235 23.4388C29.0801 23.859 29.9595 23.9694 30.8033 23.7536C31.6457 23.5365 32.3508 23.016 32.7865 22.2898C33.2223 21.5636 33.3385 20.7168 33.1127 19.9068C32.8869 19.0968 32.3468 18.4189 31.5915 17.9999C31.0779 17.7155 30.5167 17.5797 29.9635 17.5797ZM18.3464 44.4528C19.9071 43.6935 21.588 42.7769 22.2165 41.7282L22.2746 41.6292C22.8345 40.6986 22.9837 39.6119 22.6932 38.5721C22.404 37.5323 21.7095 36.6626 20.7403 36.1256C18.7359 35.0135 16.169 35.6762 15.0136 37.5996L14.9555 37.6986C14.3257 38.7447 14.3402 40.6021 14.4366 42.2805C14.4511 42.5332 14.6703 42.7147 14.9371 42.7122C15.1985 42.6982 15.4005 42.4824 15.3847 42.231C15.3358 41.3766 15.2051 39.1078 15.7768 38.1544L15.8349 38.0554C16.7289 36.5674 18.7161 36.0583 20.2636 36.9166C21.0123 37.333 21.5484 38.0033 21.7729 38.8082C21.996 39.6119 21.8825 40.4511 21.4481 41.1722L21.3886 41.2712C20.8169 42.2234 18.7069 43.2492 17.9133 43.6351C17.6796 43.7494 17.5845 44.0249 17.7033 44.2484C17.7865 44.4083 17.9542 44.4997 18.1285 44.4997C18.2051 44.5023 18.2777 44.487 18.3464 44.4528Z" fill="#353535"/>
</svg>

<svg width="50" height="50" fill="none" xmlns="http://www.w3.org/2000/svg"><path d="M29.174 43.303l-.474-.791 4.88-2.708-3.274-5.458a.443.443 0 01.024-.495l4.716-6.32c2.62-3.51 4.003-7.644 4.003-11.961V7.565c0-.415-.223-.787-.596-.994a1.223 1.223 0 00-1.192 0l-7.213 4.004c-3.889 2.159-6.922 5.378-8.773 9.313l-3.334 7.086a.478.478 0 01-.433.27H10.95v5.434H10v-5.893c0-.252.213-.457.475-.457H17.2l3.208-6.817c1.933-4.11 5.103-7.474 9.165-9.728l7.213-4.004a2.192 2.192 0 012.14 0C39.6 6.151 40 6.819 40 7.565v8.006c0 4.508-1.447 8.829-4.183 12.494l-4.537 6.08 3.36 5.598c.064.104.08.23.048.345a.455.455 0 01-.222.278l-5.292 2.937zm.776-18.527a4.31 4.31 0 01-2.102-.546c-2.014-1.117-2.705-3.602-1.543-5.54 1.163-1.936 3.75-2.598 5.76-1.484a4.053 4.053 0 011.965 2.462 3.897 3.897 0 01-.42 3.078 4.17 4.17 0 01-2.56 1.889c-.364.095-.734.14-1.1.14zm.014-7.196c-1.13 0-2.23.563-2.835 1.569-.901 1.5-.364 3.424 1.194 4.29a3.37 3.37 0 002.48.315 3.232 3.232 0 001.983-1.464 3.017 3.017 0 00.327-2.383A3.139 3.139 0 0031.592 18a3.356 3.356 0 00-1.628-.42zM18.346 44.453c1.561-.76 3.242-1.676 3.87-2.725l.059-.099a3.86 3.86 0 00.418-3.057 4.023 4.023 0 00-1.953-2.446c-2.004-1.112-4.571-.45-5.726 1.474l-.058.099c-.63 1.046-.616 2.903-.52 4.582.015.252.234.434.501.431a.463.463 0 00.448-.481c-.05-.854-.18-3.123.392-4.077l.058-.099c.894-1.488 2.881-1.997 4.429-1.138a3.116 3.116 0 011.509 1.891c.223.804.11 1.643-.325 2.364l-.06.1c-.571.951-2.681 1.977-3.475 2.363a.449.449 0 00-.21.613c.084.16.251.252.425.252a.447.447 0 00.218-.047z" fill="#353535"/></svg>
